backup/coa/ua.svg

<?xml version="1.0" encoding="UTF-8" standalone="no"?>
<!-- Created with Inkscape (http://www.inkscape.org/) -->

<svg
   xmlns:svg="http://www.w3.org/2000/svg"
   xmlns="http://www.w3.org/2000/svg"
   version="1.0"
   width="330"
   height="460"
   id="svg7657">
  <defs
     id="defs8" />
  <path
     d="m 0,0 0,347.55556 c 0.0258,23.49974 13.76018,45.92952 36.81884,56.0625 L 165,460 293.18116,403.61806 C 316.2398,393.48508 329.97414,371.0553 330,347.55556 L 330,0 0,0 z"
     id="path2839"
     style="fill:#ffd500;fill-opacity:1" />
  <path
     d="M 5,5.0000076 5,345 c 0.0252,22.98888 13.34322,44.93106 35.70312,54.84376 L 165,455 289.29688,399.84376 C 311.65678,389.93106 324.97492,367.98888 325,345 l 0,-339.9999924 -320,0 z"
     id="path7710"
     style="fill:#005bbb" />
  <path
     d="m 165,30 c -9.32028,10.57656 -15,24.42126 -15,39.61722 0.55232,33.36574 4.6446,66.66376 5,100.0195 0.73986,31.08682 -8.5845,60.28476 -19.92188,88.7673 -3.77774,7.8708 -7.86416,15.57454 -11.95312,23.2858 l -12.03126,-2.42246 c -10.82574,-2.16468 -17.8675,-12.69224 -15.70312,-23.5201 1.89386,-9.47434 10.23132,-16.05338 19.53126,-16.09688 l 4.375,0.46884 -9.76564,-81.5784 C 106.3393,122.21348 87.60116,90.34876 60,69.61722 55.25684,66.05452 50.23124,62.7974 45,59.92784 l 0,289.74398 66.875,0 c 5.00032,27.14982 19.93944,50.80216 40.93748,67.04434 4.99472,3.44316 9.17846,7.9843 12.18752,13.28384 3.00906,-5.29954 7.1928,-9.84068 12.1875,-13.28384 20.99806,-16.24218 35.9372,-39.89452 40.9375,-67.04434 l 66.875,0 0,-289.74398 c -5.23124,2.86956 -10.25684,6.12668 -15,9.68938 -27.60116,20.73154 -46.3393,52.59626 -49.53124,88.9236 l -9.76564,81.5784 4.375,-0.46884 c 9.29994,0.0436 17.63742,6.62254 19.53126,16.09688 2.16438,10.82786 -4.87736,21.35542 -15.70312,23.5201 l -12.03126,2.42246 c -4.08894,-7.71126 -8.17538,-15.415 -11.95312,-23.2858 C 183.5845,229.92148 174.26014,200.72354 175,169.63672 c 0.3554,-33.35574 4.44768,-66.65376 4.99998,-100.0195 C 179.99998,54.42126 174.32028,40.57656 165,30 z M 65,101.65472 c 12.9427,15.19272 21.62884,34.12514 24.21876,54.93246 l 8.04686,67.27888 c -10.2464,5.10198 -18.01414,14.46206 -20.9375,25.78626 l -11.32812,0 0,-147.9976 z m 200,0 0,147.9976 -11.32812,0 c -2.92334,-11.3242 -10.6911,-20.68428 -20.9375,-25.78626 l 8.04688,-67.27888 C 243.37116,135.77986 252.0573,116.84744 265,101.65472 z M 165,236.91534 c 5.3724,17.57518 12.76378,34.26394 21.95312,49.77546 C 178.2126,289.34656 170.6055,294.51232 165,301.45918 159.39448,294.51232 151.7874,289.34656 143.04688,286.6908 152.2362,271.17928 159.6276,254.49052 165,236.91534 z m -100,32.74088 11.32812,0 c 3.57166,13.8052 14.34756,24.71308 28.04688,28.52106 l 9.60936,2.18792 C 111.41132,309.69478 110,319.52444 110,329.66792 l -45,0 0,-60.0117 z m 188.67188,0 11.32812,0 0,60.0117 -45,0 c 0,-10.14348 -1.41132,-19.97314 -3.98436,-29.30272 l 9.60936,-2.18792 c 13.69932,-3.80798 24.47524,-14.71586 28.04688,-28.52106 z M 133.51562,304.9756 C 145.6481,306.6907 155,317.06222 155,329.66792 l -25,0 c 0,-8.57492 1.26998,-16.83852 3.51562,-24.69232 z m 62.96876,0 c 2.24564,7.8538 3.51564,16.1174 3.51564,24.69232 l -25.00002,0 c 0,-12.6057 9.3519,-22.97722 21.48438,-24.69232 z m -64.21876,44.69622 22.73438,0 0,42.11748 c -11.03318,-11.53652 -19.04802,-26.02258 -22.73438,-42.11748 z m 42.73438,0 22.73438,0 C 194.04804,365.76672 186.03316,380.25278 175,391.7893 l 0,-42.11748 z"
     id="path7306"
     style="fill:#ffd500" />
</svg>

<svg xmlns="http://www.w3.org/2000/svg" version="1.0" width="330" height="460"><path d="M0 0v347.556c.026 23.5 13.76 45.93 36.819 56.062L165 460l128.181-56.382c23.059-10.133 36.793-32.563 36.819-56.062V0H0z" fill="#ffd500"/><path d="M5 5v340c.025 22.989 13.343 44.931 35.703 54.844L165 455l124.297-55.156C311.657 389.93 324.975 367.989 325 345V5H5z" fill="#005bbb"/><path d="M165 30c-9.32 10.577-15 24.421-15 39.617.552 33.366 4.645 66.664 5 100.02.74 31.087-8.585 60.284-19.922 88.767-3.778 7.87-7.864 15.575-11.953 23.286l-12.031-2.423c-10.826-2.164-17.868-12.692-15.703-23.52 1.893-9.474 10.23-16.053 19.53-16.097l4.376.47-9.766-81.58C106.34 122.214 87.601 90.35 60 69.618a125.645 125.645 0 00-15-9.69v289.745h66.875c5 27.15 19.94 50.802 40.937 67.044A40.365 40.365 0 01165 430c3.01-5.3 7.193-9.84 12.188-13.284 20.998-16.242 35.937-39.894 40.937-67.044H285V59.928a125.645 125.645 0 00-15 9.69c-27.601 20.73-46.34 52.595-49.531 88.923l-9.766 81.578 4.375-.469c9.3.044 17.638 6.623 19.531 16.097 2.165 10.828-4.877 21.356-15.703 23.52l-12.031 2.423c-4.089-7.711-8.175-15.415-11.953-23.286-11.338-28.483-20.662-57.68-19.922-88.767.355-33.356 4.448-66.654 5-100.02 0-15.196-5.68-29.04-15-39.617zM65 101.655c12.943 15.192 21.629 34.125 24.219 54.932l8.047 67.28c-10.247 5.101-18.015 14.461-20.938 25.785H65V101.655zm200 0v147.997h-11.328c-2.923-11.324-10.691-20.684-20.938-25.786l8.047-67.279c2.59-20.807 11.276-39.74 24.219-54.932zm-100 135.26a228.894 228.894 0 0021.953 49.776c-8.74 2.656-16.347 7.821-21.953 14.768-5.606-6.947-13.213-12.112-21.953-14.768A228.895 228.895 0 00165 236.915zM65 269.656h11.328c3.572 13.805 14.348 24.713 28.047 28.521l9.61 2.188A110.105 110.105 0 00110 329.668H65v-60.012zm188.672 0H265v60.012h-45c0-10.144-1.411-19.973-3.984-29.303l9.609-2.188c13.7-3.808 24.475-14.716 28.047-28.52zm-120.156 35.32C145.648 306.69 155 317.062 155 329.668h-25c0-8.575 1.27-16.839 3.516-24.692zm62.968 0c2.246 7.853 3.516 16.117 3.516 24.692h-25c0-12.606 9.352-22.977 21.484-24.692zm-64.218 44.696H155v42.117c-11.033-11.536-19.048-26.022-22.734-42.117zm42.734 0h22.734c-3.686 16.095-11.7 30.58-22.734 42.117v-42.117z" fill="#ffd500"/></svg>
